X:311
T: Wang ersao guonian, 2)
N: C0896B
O: China, Dongbei, Nordosten
S: MM,]
N: Beilage kopiert. Hier mit Noten
N: +++Dieses Lied wurde GETEILT!!! Der erste Teil ist im vorherigen Do-
N: kument unter gleicher Signatur kodiert.
N: Einige Verzierungen. Vor- und Zwischenspiele weggelassen.
N: Druckfehler: Phr.6, T.1, letzte Note: statt 5 > 5_
N: Ergaenzungen: Klammern zwischen Phr.4 u. 5 fuer ein Zwischenspiel
N:  Textunterlegung fehlt). +++ s. Kommentar zur ersten Haelfte! +++
R: Xiaodiao. Shenghuo xiaochang]
M: 2/4
L: 1/16
K: G
z2d2d2B2 | B2g2edB2 | A2A4G2 | A8
d4d4 | gB3B2A2 | G2G4A2 | G6E2
z2EGB2B2 | A2d2F2E2 | D4D4
G2GGE2G2 | A4A4 | G2D2EDEG | D8
z2d2d2dB | B2g2edB2 | A2A4G2 | A2z2z4
dBdddBd2 | g4B2A2 | G2G4A2 | G6e2
z2d2d2B2 | A2d2F2E2 | D4D4
G2EGB2EG | A4A4 | G2D2EDEG | D8
e4BdA2- | A2z6 | z2d4B2 | B3AGAE2- | E2z6
z2B4E2 | B4EGE2 | d3BB4 | d4BdA2- | A2z6
z2c'c'c'2c'2 | c'3c'c'4 | c'2c'2c'4 | c'2c'2c'4
c'2c'c'c'2c'2 | c'4GAE2- | E2z6
z2d4B2 | g2B2A2A2 | z2e4d2 | G4B2A2- | A2z6
z2c'4c'2 | c'4c'4 | c'2c'c'c'2c'c' | B,2D2D4
z2e4B2 | d4d2B2 | A2G2E4
A3GA2B2 | A2G2E4 | D8- | D8
B4e4 | e2d2B4 | A6B2 | A4G4 | E4D4 | E2D2E2G2 | A8- | A4
g4 | e4e4 | e2d2B4 | A8- | A8

